X:393
T:Fandangu Punteu (XA 63)
R:Fandangu
C:Tradicional
S:Msica Tradicional Asturiana, (C) Tello & Tito. Asturies, 2001.
S:http://pagina.de/MusTradAst <telloytito@asturies.org>
A:Asturies
Z:Mtodu de Xuacu Amieva 63
M:2/4
L:1/8
Q:1/4=176
K:C
|: c2 G2|c2 G2|cB ~AG|cB ~AG :|
|~EG ~EG|cB ~AG|cB ~AG|FA FA|cB ~AG|cB ~AG|~EG~EG|cB ~AG|cB ~AG|
|.F2 F2|~A2 F2|~A2 GA|.F2 F2|~A2 F2|~A2 GF|
|~ED EF|~G2 E2|~G2 EG|.F.F.FF|~A2 D2|F2 ~ED|C2 C2|
|: ~E2 C2|~E2 GF|.D2 .D2|~D2 B,2|D2 GE|C2 C2 :|
|~E2 C2|~E2 GF|.D2 .D2|~D2 B,2|CDED|C4|
|: F~E DC|F~E DE|C2 C2 :|
|: F~E DC|F~E DE|CD EC :|
|F~E DC|F~E DE|CD EF|~G2 E2|~G2 EG|F4|
|~A2 F2|~A2 GF|~ED EF|~G2 E2|~G2 EG|.F.F.FF|~A2 D2|F2 ~ED|C2 C2|
|: ~E2 C2|~E2 GF|.D2 .D2|~D2 B,2|D2 GE|C2 C2 :|
| ~E2 C2|~E2 GF|.D2 .D2|~D2 B,2|CDED|C4|
|: cB ~AG|cB AB|G4 :|
|: cB ~AG|cB AB|GA BG :|
|cB ~AG|cB AB|G4|cB AG|c2 GA|F4|AA ~AG|A2 ~GF|~ED EF|
|~G2 E2|~G2 EG|.F.F.FF|~A2 D2|F2 ~ED|C2 C2|
|: ~E2 C2|~E2 GF|.D2 .D2|~D2 B,2|D2 GE|C2 C2 :|
|~E2 C2|~E2 GF|.D2 .D2|~D2 B,2|CDED|C4|
|: F~E DC|F~E DE|C2 C2 :|
|: F~E DC|F~E DE|CD EC :|
|F~E DC|F~E DE|CD EF|G2 A2|B2 c2|d2 e2|
|f2 ~e2|d2 c2|~G2 E2|~G2 E2|~G2 EG|F4|
|AA ~AG|A2 ~GF|~ED EF|
|~G2 E2|~G2 EG|.F.F.FF|~A2 D2|F2 ~ED|C2 C2|
|: ~E2 C2|~E2 GF|.D2 .D2|~D2 B,2|D2 GE|C2 C2 :|
|~E2 C2|~E2 GF|.D2 .D2|~D2 B,2|CDED|C4|
|: F~E DC|F~E DE|C2 C2 :|
|: F~E DC|F~E DE|B,D B,D :|
|F~E DC|F~E DE|B,D B,D|
|F~E DC|F~E DC|c4-|c4|GA -GF|~ED EG|c4-|c4|
|GA ~GF|~ED EG|c4|~ed ~ed|cB AB|cB ~AG|c4|~ed ~ed|c2 GA|c4|~ed ~ed|cB AB|cB ~AG|
|cB ~AG|cB ~AG|~EG ~EG|cB ~AG|cB AG|FA FA|cB AG|cB AG|EG EG|cB AG|cB ~AG|
|.F2 F2|~A2 F2|~A2 GA|.F2 F2|~A2 F2|~A2 ~GF|
|~ED EF|~G2 E2|~G2 EG|.F.F.FF|~A2 D2|F2 ~ED|C2 C2|
|: ~E2 C2|~E2 GF|.D2 .D2|~D2 B,2|D2 GE|C2 C2 :|
|~E2 C2|~E2 GF|.D2 .D2|~D2 B,2|CDED|
|CE DF|EG FA|GB Ac|AB GA|FG AB|GA FG|EF GA|FG EF|
|DE FG|EF DE|CD EF|DE CD|B,C DE|CD B,D|C4|G4|c z3|
